!!!OTL: UND SO FINDEN WIR UNS WIEDER
!!!ARE: Europa, Mitteleuropa, Deutschland
!!!SCT: F0691
!!!YEM: Copyright 1995, estate of Helmut Schaffrath.
**kern
*ICvox
*Ivox
*M4/4
*k[f#c#g#]
*A:
{8c#
8e
=1
4.a
8e
4.b
8e
=2
4cc#
4a}
{4.cc#
8b
=3
4b
4b
4b
8cc#
8dd#
=4
2ee
4r}
{8e
8g#
=5
4.b
8e
4.dd
8cc#
=6
4b
4b}
{4.ff#
8ee
=7
8ee
8aa
8cc#
8ee
4a
8b
8a
=8
2a
4r}
==
!!!AGN: Geselligkeits  - Lied
!!!ONB: ESAC (Essen Associative Code) Database: FINK
!!!AMT: simple quadruple
!!!AIN: vox
!!!EED: Helmut Schaffrath
!!!EEV: 1.0
*-
